Catalina-dark/actions/22/view-restore.svg

<svg xmlns="http://www.w3.org/2000/svg" viewBox="0 0 22 22">
  <defs id="defs3051">
    <style type="text/css" id="current-color-scheme">
      .ColorScheme-Text {
        color:#f2f2f2
      }
      </style>
  </defs>
 <path 
     style="fill:currentColor;fill-opacity:1;stroke:none"      
	 class="ColorScheme-Text"
     d="M 3.6015625 3 C 3.379065 3 3.1562804 3.0853241 2.9863281 3.2558594 C 2.6481727 3.5945979 2.6481727 4.1436834 2.9863281 4.4824219 L 6.4785156 7.9746094 L 4.5917969 7.9746094 C 4.0793165 7.9757754 3.6660156 8.3650851 3.6660156 8.84375 C 3.6660156 9.32533 4.0793165 9.7128906 4.5917969 9.7128906 L 8.5332031 9.7128906 C 9.0462666 9.7128906 9.4617246 9.32533 9.4628906 8.84375 C 9.4617246 8.8315064 9.4581973 8.8208373 9.4570312 8.8085938 C 9.4581973 8.7934351 9.4628906 8.7753033 9.4628906 8.7578125 L 9.4628906 4.8691406 C 9.4628906 4.3648226 9.074164 3.9550781 8.59375 3.9550781 C 8.1150851 3.9568272 7.7226563 4.3648226 7.7226562 4.8691406 L 7.7226562 6.7636719 L 4.2167969 3.2558594 C 4.0465531 3.0853241 3.82406 3 3.6015625 3 z M 18.398438 3 C 18.176304 2.9999271 17.954817 3.0853241 17.785156 3.2558594 L 14.275391 6.7636719 L 14.275391 4.8691406 C 14.275391 4.3648226 13.883749 3.9568272 13.40625 3.9550781 C 12.92467 3.9550781 12.537109 4.3648226 12.537109 4.8691406 L 12.537109 8.7578125 C 12.537109 8.7747203 12.54122 8.7934351 12.542969 8.8085938 C 12.54122 8.8208373 12.538858 8.8315064 12.537109 8.84375 C 12.538858 9.32533 12.95178 9.7128906 13.464844 9.7128906 L 17.40625 9.7128906 C 17.919896 9.7128906 18.333984 9.32533 18.333984 8.84375 C 18.333984 8.3650852 17.919896 7.9757754 17.40625 7.9746094 L 15.521484 7.9746094 L 19.011719 4.484375 C 19.35104 4.1456365 19.35104 3.5945979 19.011719 3.2558594 C 18.842058 3.0850326 18.620571 3.0000729 18.398438 3 z M 8.5 12.277344 L 4.6113281 12.279297 C 4.105261 12.279297 3.6953125 12.668024 3.6953125 13.148438 C 3.6964786 13.627102 4.105261 14.017578 4.6113281 14.017578 L 6.5058594 14.017578 L 2.9960938 17.525391 C 2.6561892 17.865878 2.6556062 18.415955 2.9960938 18.755859 C 3.3354152 19.094015 3.887241 19.094015 4.2265625 18.755859 L 7.7167969 15.263672 L 7.7167969 17.150391 C 7.7179629 17.662871 8.1066896 18.076172 8.5859375 18.076172 C 9.0663515 18.076172 9.4550781 17.662871 9.4550781 17.150391 L 9.4550781 13.207031 C 9.4550781 12.693968 9.0669345 12.280463 8.5859375 12.279297 C 8.5725279 12.280463 8.5630248 12.282037 8.5507812 12.283203 C 8.5344565 12.282037 8.5169078 12.277344 8.5 12.277344 z M 13.464844 12.287109 C 12.951197 12.287109 12.538858 12.6733 12.537109 13.154297 C 12.538858 13.167123 12.54122 13.17858 12.542969 13.191406 C 12.54122 13.207731 12.537109 13.22528 12.537109 13.242188 L 12.537109 17.128906 C 12.537109 17.634973 12.92467 18.044922 13.40625 18.044922 C 13.883749 18.043756 14.277344 17.634973 14.277344 17.128906 L 14.277344 15.234375 L 17.785156 18.744141 C 18.124478 19.084045 18.67435 19.084045 19.013672 18.744141 C 19.352993 18.404819 19.352993 17.854947 19.013672 17.515625 L 15.521484 14.023438 L 17.408203 14.023438 C 17.92185 14.022271 18.335938 13.633545 18.335938 13.154297 C 18.335938 12.673883 17.92185 12.287109 17.408203 12.287109 L 13.464844 12.287109 z "
     />
</svg>

<svg viewBox="0 0 22 22" xmlns="http://www.w3.org/2000/svg">
<defs>
<style id="current-color-scheme" type="text/css">.ColorScheme-Text {
        color:#dedede
      }</style>
</defs>
<path class="ColorScheme-Text" d="m3.6016 3c-0.2225 0-0.44528 0.085324-0.61523 0.25586-0.33816 0.33874-0.33816 0.88782 0 1.2266l3.4922 3.4922h-1.8867c-0.51248 0.001166-0.92578 0.39048-0.92578 0.86914 0 0.48158 0.4133 0.86914 0.92578 0.86914h3.9414c0.51306 0 0.92852-0.38756 0.92969-0.86914-0.001166-0.012244-0.0046933-0.022913-0.0058594-0.035156 0.0011661-0.015159 0.0058594-0.03329 0.0058594-0.050781v-3.8887c0-0.50432-0.38873-0.91406-0.86914-0.91406-0.47866 0.0017491-0.87109 0.40974-0.87109 0.91406v1.8945l-3.5059-3.5078c-0.17024-0.17054-0.39274-0.25586-0.61523-0.25586zm14.797 0c-0.22213-7.29e-5 -0.44362 0.085324-0.61328 0.25586l-3.5098 3.5078v-1.8945c0-0.50432-0.39164-0.91231-0.86914-0.91406-0.48158 0-0.86914 0.40974-0.86914 0.91406v3.8887c0 0.016908 0.004111 0.035623 0.00586 0.050781-0.001749 0.012244-0.004111 0.022913-0.00586 0.035156 0.001749 0.48158 0.41467 0.86914 0.92774 0.86914h3.9414c0.51365 0 0.92773-0.38756 0.92773-0.86914 0-0.47866-0.41409-0.86797-0.92773-0.86914h-1.8848l3.4902-3.4902c0.33932-0.33874 0.33932-0.88978 0-1.2285-0.16966-0.17083-0.39115-0.25579-0.61328-0.25586zm-9.8984 9.2773-3.8887 0.001953c-0.50607 0-0.91602 0.38873-0.91602 0.86914 0.0011661 0.47866 0.40995 0.86914 0.91602 0.86914h1.8945l-3.5098 3.5078c-0.3399 0.34049-0.34049 0.89056 0 1.2305 0.33932 0.33816 0.89115 0.33816 1.2305 0l3.4902-3.4922v1.8867c0.001166 0.51248 0.38989 0.92578 0.86914 0.92578 0.48041 0 0.86914-0.4133 0.86914-0.92578v-3.9434c0-0.51306-0.38814-0.92657-0.86914-0.92773-0.01341 0.001166-0.022913 0.00274-0.035156 0.003906-0.016325-0.001166-0.033873-0.005859-0.050781-0.005859zm4.9648 0.009765c-0.51365 0-0.92599 0.38619-0.92774 0.86719 0.001749 0.012826 0.004111 0.024283 0.00586 0.037109-0.001749 0.016325-0.00586 0.033874-0.00586 0.050782v3.8867c0 0.50607 0.38756 0.91602 0.86914 0.91602 0.4775-0.001166 0.87109-0.40995 0.87109-0.91602v-1.8945l3.5078 3.5098c0.33932 0.3399 0.88919 0.3399 1.2285 0 0.33932-0.33932 0.33932-0.88919 0-1.2285l-3.4922-3.4922h1.8867c0.51365-0.001167 0.92774-0.38989 0.92774-0.86914 0-0.48041-0.41409-0.86719-0.92774-0.86719h-3.9434z" fill="currentColor"/>
</svg>
